packages/core/src/svgs/meed.svg

<svg width="24" height="24" viewBox="0 0 24 24" fill="none" xmlns="http://www.w3.org/2000/svg">
<g clip-path="url(#clip0_31_13670)">
<path d="M0 0H24V24H0V0Z" fill="#F0F3FA"/>
<path d="M8.9999 16.2856H6.42847V5.57129H9.42847L11.7856 12.4284L14.5713 5.57129H17.5713V19.7141H14.9999V10.2856L12.6428 16.2856H10.9285L8.9999 10.2856V16.2856Z" fill="#E45C5C"/>
</g>
<defs>
<clipPath id="clip0_31_13670">
<rect width="24" height="24" fill="white"/>
</clipPath>
</defs>
</svg>

<svg xmlns="http://www.w3.org/2000/svg" width="24" height="24" fill="none" viewBox="0 0 24 24"><g clip-path="url(#a)"><path fill="#F0F3FA" d="M0 0h24v24H0z"/><path fill="#E45C5C" d="M9 16.286H6.428V5.57h3l2.358 6.857 2.785-6.857h3v14.143H15v-9.428l-2.357 6h-1.715l-1.928-6z"/></g><defs><clipPath id="a"><path fill="#fff" d="M0 0h24v24H0z"/></clipPath></defs></svg>
